X: 6488
T: Cat In The Hopper, The
R: jig
M: 6/8
K: Gdorian
|:DGA B2c|AFF F2A|G3 g2e|fdd d2e|
fag fed|dcA B2c|d_ed d2c|dBG G3:|
|:gdg gab|agf fga|gag gfe|fdd d2e|
fag fed|dcA B2c|d_ed d2c|dBG G3:|

